!!!!SEGMENT: pl-kk--kk-i-382--038_anonim--boga-rodzico.krn
!!!cenid: 18xx:1525
!!!COM: Anonim
!!!COM-rismID: pe30004985
!!!CDT:
!!!CNT:
!!!OTL: Boga rodzico
!!!PDT:
!!!AGN: Sacred
!!!SMS-siglum: PL-Kk
!!!SMS-shelfmark: Kk.I.382
!!!SMS-shelfwork: 023 W
!!!SMS-variant:
!!!SMS-altvar:
!!!NIFC-rismSourceID: 1001139027
!!!NIFC-rismChildID: 1001140003
!!!NIFC-islandoraID: pl-kk:6162
!!!URL-pdf-islandora: https://repozytorium.nifc.pl/islandora/object/pl-kk%3A6162/datastream/PDF/view
!!!URL-scan: https://polish.musicsources.pl/pl/lokalizacje/galeria/rekopisy/5994 @EN{Scan on Polish Music Sources Website} @PL{Skany w portalu Dziedzictwo Muzyki Polskiej w otwartym dostępie}
!!!IIIF:
!!!ONB-nifc: UWAGA: obsada: T2 (skany 0106, 0109), A (B 1) (skany 0181-0182)
!!!AIN: 1 alto 1 tenor
!!!key:
**kern	**text	**dynam	**kern	**text	**dynam
*part2	*part2	*part2	*part1	*part1	*part1
*staff2	*staff2	*	*staff1	*staff1	*
*Ialto	*	*	*Itenor	*	*
*I"Alto vel Basso I	*	*	*I"Tenore II	*	*
*I'A (B 1)	*	*	*I'T 2	*	*
*clefF4	*	*	*clefGv2	*	*
*k[b-e-]	*	*	*k[b-e-]	*	*
*B-:	*	*	*B-:	*	*
*M4/2	*	*	*M4/2	*	*
=1	=1	=1	=1	=1	=1
*2\right	*	*	*2\right	*	*
!LO:TX:a:t=P:problem=kaudy \ raz z prawej raz z lewej	!	!	!	!	!
!LO:TX:a:i:t=Maestoso	!	!	!LO:TX:a:i:t=(Św. Wojciecha \nz X Wieku) harmon. Rychling	!	!LO:DY:a
!LO:TX:a:t=P:problem=w źródle "Boga Rodzico Swiętego Wojciecha" zapisane po prawej stronie, nad pierwszą pięciolinią tego utworu	!	!	!	!	!
!LO:TX:a:i:t=Boga Rodzico \nSwiętego Wojciecha	!	!	!	!	!
!	!	!	!LO:TX:a:t=P:all\right:problem	!	!
!	!	!	!LO:TX:a:t=P:problem=w źródle ta adnotacja zapisana przed pierwszym taktem, na pięciolinii	!	!
!	!	!	!LO:TX:a:i:t=Boga Rodzico.	!	!
!	!	!	!	!	!LO:DY:rj
!	!	!	!	!	!LO:DY:a
4G\	Bo-	.	4G/	Bo-	pp
4G\	-ga	.	4G/	-ga	.
(>2E-\	Ro-	.	[<2G/	Ro-	.
2D\)	.	.	2G/]	.	.
4D\	-dzi-	.	4F#X/	-dzi-	.
4BB-/	-co	.	4D;>/	-co	.
=2	=2	=2	=2	=2	=2
*2\left	*	*	*	*	*
!	!	!	!	!	!LO:DY:rj
!	!	!	!	!	!LO:DY:a
2E-\	Dzie-	.	2G/	Dzie-	p
(>4E-\	-wi-	.	4G/	-wi-	.
4G\)	.	.	4c\	.	.
.	.	.	.	.	<[
1G	-co	.	1B-;>	-co	>
.	.	.	.	.	]
!	!	!	!LO:LB:g=original	!	!
=3	=3	=3	=3	=3	=3
!	!	!	!	!	!LO:DY:a
4A\	Bo-	.	4c\	Bo-	mf
4A\	-giem	.	4c\	-giem	.
2B-\	wsła-	.	2d\	sła-	.
(>4F\	-wio-	.	(<4B-\	-wio-	.
4E-\)	.	.	4G/)	.	.
2D\	-na	.	2G/	-na	.
=4	=4	=4	=4	=4	=4
(>2A\	Ma-	.	(>2c\	Ma-	.
4F\	.	.	4B-\	.	.
4E-\	.	.	4G/	.	.
4D\	.	.	4G/	.	.
4D\)	-ry-	.	4F#X/)	-ry-	.
2BB-;>/	-a	.	2D;>/	-a	.
!LO:PB:g=original	!	!	!	!	!
=5	=5	=5	=5!|:	=5!|:	=5!|:
!	!	!LO:DY:rj	!	!	!
!	!	!LO:DY:a	!	!	!LO:DY:a
2F\	U	p	2B-\	U	p
4D\	swe-	.	4F/	Twe-	.
4F\	-go	.	4A/	-go	.
(>4F\	Sy-	.	(<4A/	Sy-	.
4c\	.	.	4G/)	.	.
2G\)	-na	.	2B-\	-na	.
!	!	!	!LO:LB:g=original	!	!
=6	=6	=6	=6	=6	=6
!	!	!	!	!	!LO:DY:rj
!	!	!	!	!	!LO:DY:a
4A\	Hos-	.	4c\	Ho-	f
4B-\	-po-	.	4d\	-spo-	.
.	.	<[	.	.	<[
1B-	-dy-	>]	1e-	-dy-	>]
2F\	-na	.	2A/	-na	.
=7	=7	=7	=7	=7	=7
2B-\	Mat-	.	2d\	Mat-	.
.	.	<[	.	.	.
2F\	-ko	>]	2B-\	-ko	.
4E-\	zwo-	.	4G/	zwo-	.
4D\	-lo-	.	8G/L	-lo-	.
.	.	.	8F#X/J	.	.
2BB-/	-na	.	2G/	-na	.
=8	=8	=8	=8	=8	=8
*	*	*	*	*	*^
!	!	!	!	!	!LO:DY:rj	!
!	!	!LO:DY:a	!	!	!LO:DY:a	!
.	.	.	.	.	.	.
1G	Ma-	mf	1B-	Ma-	mf	<[
.	.	.	.	.	.	>]
(>4E-\	-ry-	.	4G/	.	.	.
4D\)	.	.	8G/L	-ry-	.	.
.	.	.	8F#X/J	.	.	.
2BB-;>/	-a	.	2D;>/	-a	.	.
*	*	*	*	*	*v	*v
!	!	!	!LO:LB:g=original	!	!
=9	=9	=9	=9	=9	=9
4D\	zi-	.	4G/	zi-	.
4G\	-ści	.	4G/	-ści	.
[>2F\	nam	.	(<2A/	nam	.
1F]	.	.	1B-)	.	.
!LO:LB:g=original	!	!	!	!	!
=10	=10	=10	=10	=10	=10
!	!	!LO:DY:rj	!	!	!LO:DY:rj
!	!	!LO:DY:a	!	!	!LO:DY:a
4B-\	spu-	f	4d\	spu-	f
4B-\	-ści	.	4d\	-ści	.
.	.	<[	.	.	<[
(>1B-	nam	>]	(>1e-	nam	>]
2F\)	.	.	2A/)	.	.
=11	=11	=11	=11	=11	=11
4F\	Ki-	.	4c\	Ky-	.
4F\	-ri-	.	4c\	-ri-	.
4F\	-e-	.	4B-\	-e	.
4F\	-e-	.	4B-\	e-	.
(>4E-\	-lei-	.	4G/	-lei-	.
4D\	.	.	8G/L	.	.
.	.	.	8F#X/J	.	.
!	!	!	!LO:TX:a:t=P:problem=w źróde ta acnotacja zapisana za taktem 11, na pięciolinii i częściowo nad pięciolinią	!	!
!	!	!	!LO:TX:b:i:t=Trzy kartki \nnaprzód \nciąg dalszy	!	!
2BB-/)	-son	.	2D/	-son.	.
!	!	!	!LO:PB:g=original	!	!
=12	=12	=12	=12:|!	=12:|!	=12:|!
!	!	!LO:DY:rj	!	!	!LO:DY:rj
!	!	!LO:DY:a	!LO:TX:a:i:t=Ciąg dalszy	!	!LO:DY:a
4E-\	Twe-	pp	4G/	Twe-	pp
4E-\	-go	.	4G/	-go	<
.	.	<[	.	.	.
1D	sy-	>]	1F	Sy-	[>
2E-\	-na	.	2G/	-na	]
=13	=13	=13	=13	=13	=13
2D\	Chrzci-	.	2G/	Chrzci-	.
2D\	-cie-	.	2F#X/	-cie-	.
1BB-;>	-la	.	1D;>	-la	.
=14	=14	=14	=14	=14	=14
4BB-/	A-	.	4D/	A-	.
4D\	-da-	.	4F/	-da-	.
4D\	-mie	.	4F/	-mie	.
4D\	ty	.	4G/	ty	.
4D\	Bo-	.	4F/	Bo-	.
4F\	-ży	.	4F/	-ży	.
4En\	Kmie-	.	4G/	Kmie-	.
8C;>/	-ciu	.	8F/	-ciu	.
8r	.	.	8r;>	.	.
!LO:LB:g=original	!	!	!	!	!
=15	=15	=15	=15	=15	=15
4D\	Ty	.	4F/	Ty	.
4D\	sie-	.	4F/	sie-	.
4D\	-dzisz	.	4G/	-dzisz	.
4D\	u	.	4G/	u	.
4D\	Bo-	.	4F/	Bo-	.
4C/	-ga	.	4F/	-ga	.
4D\	w wie-	.	4F/	w wie-	.
8C/	-cu	.	8F/	-cu	.
8r;	.	.	8r;>	.	.
!	!	!	!LO:LB:g=original	!	!
=16	=16	=16	=16	=16	=16
!	!	!	!	!	!LO:DY:rj
!	!	!LO:DY:a	!	!	!LO:DY:a
4D\	do-	mf	4F/	do-	mf
8D\	-mieść	.	8F/	-mieść	.
8D\	nas	.	8F/	nas	.
[>4F\	swe	.	(>4A/	swe	.
8F\L]	.	.	4B-\)	.	.
8G\J	.	.	.	.	.
2F\	dzie-	.	(>4B-\	dzie-	.
.	.	.	4A/)	.	.
*	*	*	*2\left	*	*
2D\	-ci	.	2B-\	-ci	.
=17	=17	=17	=17	=17	=17
4F\	gdzie	.	4B-\	gdzie	.
4B-\	kró-	.	4B-\	kró-	.
4G\	-lu-	.	4c\	-lu-	.
(>8G\L	-ją	.	8Bn\L	-ją	.
8C\J)	.	.	8c\J	.	.
4F\	już	.	4B-X\	już	.
4F\	świę-	.	4A/	świę-	.
2D\	-ci	.	2F/	-ci	.
=18	=18	=18	=18	=18	=18
!	!	!LO:DY:a	!	!	!LO:DY:a
4D\	Tam	ff	4F/	Tam	ff
4F\	ra-	.	4B-\	ra-	.
2B-\	-dość	.	2d\	-dość	.
4B-\	tam	.	8e-\L	tam	.
.	.	.	8f\J	.	.
4B-\	mi-	.	8g\L	mi-	.
.	.	.	8e-\J	.	.
2B-\	-łość	.	2d\	-łość	.
!	!	!	!LO:LB:g=original	!	!
=19	=19	=19	=19	=19	=19
!	!	!LO:DY:a	!	!	!
8BB-/L	Tam	ff	8BB-/L	Tam	.
8C/J	.	.	8C/J	.	.
8D\L	ra-	.	8D/L	ra-	.
8E-\J	.	.	8E-/J	.	.
2F\	-dość	.	2F/	-dość	.
8G\L	tam	.	8G/L	tam	.
8A\J	.	.	8A/J	.	.
8B-\L	mi-	.	8B-/L	mi-	.
8G\J	.	.	8G/J	.	.
2F\	-łość	.	2F/	-łość	.
=20	=20	=20	=20	=20	=20
!	!	!	!	!	!LO:DY:rj
!	!	!LO:DY:a	!	!	!LO:DY:a
4D\	tam	pp	4F/	tam	pp
4D\	wi-	.	4F/	wi-	.
4E-\	-dze-	.	4F/	-dze-	.
4E-\	-nie	.	4F/	-nie	.
2D\	Twór-	.	2F/	Twór-	.
2D\	-ca	.	2F/	-ca	.
=21	=21	=21	=21	=21	=21
4D\	A-	.	4G/	A-	.
4D\	-niel-	.	4G/	-niel-	.
4D\	-skie	.	4F#X/	-skie	.
4D\	bez	.	4G/	bez	.
2Fn\	koń-	.	2A/	koń-	.
2F\	-ca	.	2A/	-ca	.
=22	=22	=22	=22	=22	=22
!	!	!LO:DY:a	!	!	!LO:DY:a
4F\	tu	mf	4B-\	Tu	mf
4G\	się	.	4B-\	się	.
2A\	nam	.	2c\	nam	.
4F\	zja-	.	4B-\	zja-	.
4F\	-wi-	.	4A/	-wi-	.
2F\	-ło	.	2B-\	-ło	.
!LO:LB:g=original	!	!	!LO:LB:g=original	!	!
=23	=23	=23	=23	=23	=23
!	!	!	!	!	!LO:DY:rj
!	!	!LO:DY:a	!	!	!LO:DY:a
4G\	dja-	pp	4B-\	dja-	pp
4F\	-ble	.	4B-\	-ble	.
4E-\	po-	.	4F/	po-	.
4E-\	-tę-	.	4F/	-tę-	.
2D\	-pie-	.	2F/	-pie-	.
2D\	-nie	.	2F/	-nie	.
=24	=24	=24	=24	=24	=24
!	!	!LO:DY:a	!	!	!LO:DY:a
4D\	te-	ff	4F/	te-	ff
4F\	-góż	.	4B-\	-góż	.
2B-\	nas	.	2d\	nas	.
4B-\	do-	.	8e-\L	do-	.
.	.	.	8f\J	.	.
4B-\	-mieś-	.	8g\L	-mieś-	.
.	.	.	8e-\J	.	.
2B-\	-ci	.	2d\	-ci	.
=25	=25	=25	=25	=25	=25
!	!	!LO:DY:a	!	!	!LO:DY:a
8BB-/L	te-	ff	8BB-/L	te-	ff
8C/J	.	.	8C/J	.	.
8D\L	-goż	.	8D/L	-goż	.
8E-\J	.	.	8E-/J	.	.
2F\	nas	.	2F/	nas	.
8G\L	do-	.	8G/L	do-	.
8A\J	.	.	8A/J	.	.
8B-\L	-mieś-	.	8B-/L	-mieś-	.
8G\J	.	.	8G/J	.	.
2F\	-ci	.	2F/	-ci	.
=26	=26	=26	=26	=26	=26
!	!	!LO:DY:a	!	!	!LO:DY:a
4D\	Je-	pp	4F/	Je-	pp
4D\	-zu	.	4F/	-zu	.
4E-\	Chry-	.	4E-/	Chrys-	.
4E-\	-ste	.	4G/	-te	.
2D\	mi-	.	2G/	mi-	.
2E-\	-ły	.	2G/	-ły	.
!LO:LB:g=original	!	!	!LO:LB:g=original	!	!
=27	=27	=27	=27	=27	=27
4D\	byś-	.	4F/	byś-	.
4D\	-my	.	4F/	-my	.
4E-\	z To-	.	4F/	z To-	.
4D\	-bą	.	4F/	-bą	.
2F\	by-	.	2A/	by-	.
2F\	-li	.	2A/	-li	.
=28	=28	=28	=28	=28	=28
!	!	!LO:DY:a	!	!	!
4F\	gdzie	mf	4B-\	gdzie	.
4G\	się	.	4B-\	się	.
2A\	nam	.	2c\	nam	.
4B-\	ra-	.	4B-\	ra-	.
4G\	-du-	.	4c\	-du-	.
2F#X\	-ją	.	2A/	-ją	.
=29	=29	=29	=29	=29	=29
!	!	!LO:DY:a	!	!	!
4D\	już	pp	4G/	już	.
4Fn\	nie-	.	4F/	nie-	.
4E-\	-bies-	.	4E-/	-bies-	.
4E-\	-kie	.	4G/	-kie	.
(>4D\	si-	.	2G/	si-	.
4E-\	.	.	.	.	.
2D\)	-ły	.	2F/	-ły	.
=30	=30	=30	=30	=30	=30
4D\	A-	.	4F/	A-	.
4C/	-men	.	4F/	-men	.
4D\	A-	.	4G/	A-	.
4E-\	-men	.	4G/	-men	.
2F\	A-	.	2F/	A-	.
2E-\	-men	.	2G/	-men	.
!LO:LB:g=original	!	!	!LO:LB:g=original	!	!
=31	=31	=31	=31	=31	=31
4D\	A-	.	4F/	A-	.
4D\	-men	.	4F/	-men	.
4D\	A-	.	4F/	A-	.
4F\	-men	.	4F/	-men	.
2En\	A-	.	2G/	A-	.
2F\	-men	.	2A/	-men	.
=32	=32	=32	=32	=32	=32
!	!	!LO:DY:a	!	!	!
4F\	A-	mf	4B-\	A-	.
4G\	-men	.	4B-\	-men	.
4A\	ta-	.	4c\	ta-	.
4A\	-ko	.	4c\	-ko	.
(>4B-\	Bóg	.	(>4B-\	Bóg	.
4G\)	.	.	4c\)	.	.
2F#X\	daj	.	2A/	daj	.
=33	=33	=33	=33	=33	=33
4D\	byś-	.	4G/	byś-	.
4D\	-my	.	4F/	-my	.
4E-\	wszy-	.	4G/	wszys-	.
4E-\	-scy	.	4G/	-cy	.
4BB-/	po-	.	8D/L	po-	.
.	.	.	8En/J	.	.
4C/	-szli	.	4F/	-szli	.
2D\	w raj	.	2F/	w raj	.
=34	=34	=34	=34	=34	=34
!LO:TX:a:i:t=ritar.	!	!	!LO:TX:a:i:t=ritardando	!	!
4F\	gdzie	.	4B-\	gdzie	.
8G\L	kró-	.	4B-\	kró-	.
8F\J	.	.	.	.	.
4G\	-lu-	.	4c\	-lu-	.
4G\	-ją	.	4c\	-ją	.
4F#X\	A-	.	4A/	A-	.
8Fn\L	-nie-	.	8A/L	-nie-	.
8D\J	.	.	8F/J	.	.
4D;>\	-li.	.	4F;>/	-li.	.
4r	.	.	4r	.	.
==	==	==	==	==	==
*-	*-	*-	*-	*-	*-
!!!system-decoration: s1,s2
!!!EED: Antoni Szymański
!!!EEV: 2021-02-08
!!!RDF**kern: > = above
!!!RDF**kern: < = below
!!!ENC: Berenika Jozajtis
!!!END: 2021-01-30
!!!YEC: Copyright 2022 Narodowy Instytut Fryderyka Chopina (https://polishscores.org)
!!!YEM: License CC-BY-4.0 (https://creativecommons.org/licenses/by/4.0)
